public/facebook.svg

<svg fill="none" height="32" viewBox="0 0 32 32" width="32" xmlns="http://www.w3.org/2000/svg"><path clip-rule="evenodd" d="m7.20001 3.19995c-2.20914 0-4 1.79087-4 4v17.59995c0 2.2092 1.79087 4 4.00001 4h8.64748v.0002h3.6201v-.0002h5.3324c2.2091 0 4-1.7908 4-4v-17.59995c0-2.20914-1.7909-4-4-4zm12.26759 25.59995v-8.7569h3.0192l.4519-3.4131h-3.4711v-2.1796c0-.9876.2816-1.6614 1.737-1.6614l1.856-.0009v-3.05317c-.3212-.04146-1.4225-.13475-2.7046-.13475-2.6766 0-4.5085 1.59062-4.5085 4.51192v2.5169h-3.0269v3.4131h3.0269v8.7579z" fill="#404b59" fill-rule="evenodd"/></svg>

<svg width="32" height="32" viewBox="0 0 32 32" fill="none" xmlns="http://www.w3.org/2000/svg">
<path fill-rule="evenodd" clip-rule="evenodd" d="M7.20001 3.19995C4.99087 3.19995 3.20001 4.99082 3.20001 7.19995V24.7999C3.20001 27.0091 4.99088 28.7999 7.20002 28.7999H15.8475V28.8001H19.4676V28.7999H24.8C27.0091 28.7999 28.8 27.0091 28.8 24.7999V7.19995C28.8 4.99081 27.0091 3.19995 24.8 3.19995H7.20001ZM19.4676 28.7999V20.043H22.4868L22.9387 16.6299H19.4676V14.4503C19.4676 13.4627 19.7492 12.7889 21.2046 12.7889L23.0606 12.788V9.73483C22.7394 9.69337 21.6381 9.60008 20.356 9.60008C17.6794 9.60008 15.8475 11.1907 15.8475 14.112V16.6289H12.8206V20.042H15.8475V28.7999H19.4676Z" fill="#404B59"/>
</svg>
